src/22/actions/mail-reply-custom.svg

<svg xmlns="http://www.w3.org/2000/svg" viewBox="0 0 22 22">
  <defs id="defs3051">
    <style type="text/css" id="current-color-scheme">
      .ColorScheme-Text {
        color:#5d656b;
      }
      </style>
  </defs>
 <path 
    style="fill:currentColor;fill-opacity:1;stroke:none" 
    d="M 1 3 L 1 12 L 2 12 L 2 8 L 20 8 L 20 12 L 20 16 L 20 17.414062 L 20 18 L 8 18 L 8 19 L 14 19 L 20 19 L 21 19 L 21 18.414062 L 21 18 L 21 12 L 21 4 L 21 3 L 20 3 L 19.537109 3 L 2.4628906 3 L 2 3 L 1.0488281 3 L 1 3 z M 2 4 L 2.0488281 4 L 3.4628906 4 L 18.537109 4 L 19.951172 4 L 20 4 L 20 4.2226562 L 20 7 L 2 7 L 2 4.2226562 L 2 4 z M 4 13 L 1 16 L 4 19 L 4 17 L 5 17 L 6 17 L 6 15 L 5 15 L 4 15 L 4 13 z "
    class="ColorScheme-Text"
    />  
</svg>

<svg xmlns="http://www.w3.org/2000/svg" viewBox="0 0 22 22"><path d="M1 3v9h1V8h18v10H8v1h13V3H1zm1 1h18v3H2V4zm2 9l-3 3 3 3v-2h2v-2H4v-2z" fill="currentColor" color="#5d656b"/></svg>
